X:1
T:My heart is sair for somebody
L:1/8
M:4/4
I:linebreak $
K:G
V:1 treble 
V:1
 D |:"G" G>B d>B"Am" A>G"D7" A>B |"G" G>G B>d"C" e2"G" d<B |"Bm" G>B d>B"Am" A>G"D7" A>B | %4
"G" G>E"C" E>D"D7" d2"G" B<G |$"C" e2 c>e"G" d2 B<G |"A7" c2 B>G"D7" A2 F<D | %7
"G" G>B"D" A>c"Em" Be"Bm" d2 |"G" G>E"C" E>D"D7" d2"G" B<G :| %9
